packages/core/src/svgs/tokens/branded/PURSE.svg

<svg width="24" height="24" viewBox="0 0 24 24" fill="none" xmlns="http://www.w3.org/2000/svg">
<path d="M3.0022 8.66988H6.33475C6.51151 8.66988 6.68104 8.74009 6.80603 8.86508C6.93104 8.99009 7.00126 9.1596 7.00126 9.33638V12.6689H3.6687C3.49194 12.6689 3.32241 12.5987 3.19742 12.4737C3.07241 12.3486 3.0022 12.1791 3.0022 12.0025V8.66988ZM20.9979 8.66988H17.6654C17.4886 8.66988 17.3191 8.74009 17.1941 8.86508C17.0692 8.99009 16.9989 9.1596 16.9989 9.33638V12.6689H20.3315C20.5082 12.6689 20.6777 12.5987 20.8027 12.4737C20.9278 12.3486 20.9979 12.1791 20.9979 12.0025V8.66988ZM7.66777 9.33638C7.66777 9.1596 7.73798 8.99009 7.86299 8.86508C7.98798 8.74009 8.15751 8.66988 8.33427 8.66988H11.0004C11.177 8.66988 11.3466 8.74009 11.4716 8.86508C11.5966 8.99009 11.6668 9.1596 11.6668 9.33638V12.0025C11.6668 12.1791 11.5966 12.3486 11.4716 12.4737C11.3466 12.5987 11.177 12.6689 11.0004 12.6689H8.33427C8.15751 12.6689 7.98798 12.5987 7.86299 12.4737C7.73798 12.3486 7.66777 12.1791 7.66777 12.0025V9.33638Z" fill="#B805F7"/>
<path d="M3.0022 14.002C3.0022 13.8251 3.07241 13.6556 3.19742 13.5306C3.32241 13.4057 3.49194 13.3354 3.6687 13.3354H6.33475C6.51151 13.3354 6.68104 13.4057 6.80603 13.5306C6.93104 13.6556 7.00126 13.8251 7.00126 14.002V16.668C7.00126 16.8447 6.93104 17.0142 6.80603 17.1392C6.68104 17.2643 6.51151 17.3344 6.33475 17.3344H3.6687C3.49194 17.3344 3.32241 17.2643 3.19742 17.1392C3.07241 17.0142 3.0022 16.8447 3.0022 16.668V14.002ZM16.9989 14.002C16.9989 13.8251 17.0692 13.6556 17.1941 13.5306C17.3191 13.4057 17.4886 13.3354 17.6654 13.3354H20.3315C20.5082 13.3354 20.6777 13.4057 20.8027 13.5306C20.9278 13.6556 20.9979 13.8251 20.9979 14.002V16.668C20.9979 16.8447 20.9278 17.0142 20.8027 17.1392C20.6777 17.2643 20.5082 17.3344 20.3315 17.3344H17.6654C17.4886 17.3344 17.3191 17.2643 17.1941 17.1392C17.0692 17.0142 16.9989 16.8447 16.9989 16.668V14.002ZM12.3333 18.6675C12.3333 18.4907 12.4036 18.3212 12.5285 18.1961C12.6535 18.0713 12.823 18.001 12.9999 18.001H15.6659C15.8426 18.001 16.0121 18.0713 16.1372 18.1961C16.2622 18.3212 16.3323 18.4907 16.3323 18.6675V21.3336C16.3323 21.5103 16.2622 21.6798 16.1372 21.8048C16.0121 21.9298 15.8426 22 15.6659 22H12.9999C12.823 22 12.6535 21.9298 12.5285 21.8048C12.4036 21.6798 12.3333 21.5103 12.3333 21.3336V18.6675ZM7.66777 18.6675C7.66777 18.4907 7.73798 18.3212 7.86299 18.1961C7.98798 18.0713 8.15751 18.001 8.33427 18.001H11.0004C11.177 18.001 11.3466 18.0713 11.4716 18.1961C11.5966 18.3212 11.6668 18.4907 11.6668 18.6675V21.3336C11.6668 21.5103 11.5966 21.6798 11.4716 21.8048C11.3466 21.9298 11.177 22 11.0004 22H8.33427C8.15751 22 7.98798 21.9298 7.86299 21.8048C7.73798 21.6798 7.66777 21.5103 7.66777 21.3336V18.6675Z" fill="#F4D70D"/>
<path d="M12.3335 9.33638C12.3335 9.1596 12.4038 8.99009 12.5287 8.86508C12.6537 8.74009 12.8232 8.66988 13 8.66988H15.6661C15.8428 8.66988 16.0123 8.74009 16.1373 8.86508C16.2624 8.99009 16.3325 9.1596 16.3325 9.33638V12.0025C16.3325 12.1791 16.2624 12.3486 16.1373 12.4737C16.0123 12.5987 15.8428 12.6689 15.6661 12.6689H13C12.8232 12.6689 12.6537 12.5987 12.5287 12.4737C12.4038 12.3486 12.3335 12.1791 12.3335 12.0025V9.33638Z" fill="#B805F7"/>
<path d="M3.0022 18.6675C3.0022 18.4907 3.07241 18.3212 3.19742 18.1962C3.32241 18.0713 3.49194 18.001 3.6687 18.001H7.00126V21.3336C7.00126 21.5103 6.93104 21.6798 6.80603 21.8048C6.68104 21.9299 6.51151 22 6.33475 22H3.6687C3.49194 22 3.32241 21.9299 3.19742 21.8048C3.07241 21.6798 3.0022 21.5103 3.0022 21.3336V18.6675Z" fill="#F4D70D"/>
<path d="M16.1521 3.80436C16.3921 4.03764 16.3921 4.40421 16.1521 4.62416L13.9993 6.67034L11.8466 4.62416C11.7912 4.57185 11.7472 4.5088 11.7172 4.43889C11.687 4.36899 11.6716 4.29369 11.6716 4.21759C11.6716 4.1415 11.687 4.06618 11.7172 3.99629C11.7472 3.92638 11.7912 3.86333 11.8466 3.81102L13.5662 2.17141C13.6834 2.06129 13.8383 2 13.9993 2C14.1602 2 14.3151 2.06129 14.4326 2.17141L16.1521 3.81102V3.80436Z" fill="#B805F7"/>
<path d="M11.6666 3.34446L11.1801 3.81102C11.1248 3.86333 11.0808 3.92638 11.0508 3.99629C11.0207 4.06618 11.0052 4.1415 11.0052 4.21759C11.0052 4.29369 11.0207 4.36899 11.0508 4.43889C11.0808 4.5088 11.1248 4.57185 11.1801 4.62416L11.6666 5.09072L10.0004 6.67034L7.84758 4.62416C7.79231 4.57185 7.7483 4.5088 7.71821 4.43889C7.68813 4.36899 7.67261 4.29369 7.67261 4.21759C7.67261 4.1415 7.68813 4.06618 7.71821 3.99629C7.7483 3.92638 7.79231 3.86333 7.84758 3.81102L9.56711 2.17141C9.68452 2.06129 9.83942 2 10.0004 2C10.1613 2 10.3162 2.06129 10.4337 2.17141L11.6666 3.34446ZM20.9977 18.6675C20.9977 18.4907 20.9276 18.3212 20.8026 18.1962C20.6775 18.0713 20.508 18.001 20.3314 18.001H16.9987V21.3336C16.9987 21.5103 17.069 21.6798 17.1939 21.8048C17.3189 21.9299 17.4885 22 17.6653 22H20.3314C20.508 22 20.6775 21.9299 20.8026 21.8048C20.9276 21.6798 20.9977 21.5103 20.9977 21.3336V18.6675Z" fill="#F4D70D"/>
</svg>

<svg xmlns="http://www.w3.org/2000/svg" width="24" height="24" fill="none" viewBox="0 0 24 24">
    <path fill="#B805F7" d="M3.002 8.67h3.333A.666.666 0 0 1 7 9.336v3.333H3.67a.666.666 0 0 1-.667-.667zm17.996 0h-3.333a.666.666 0 0 0-.666.666v3.333h3.332a.666.666 0 0 0 .667-.667zm-13.33.666a.666.666 0 0 1 .666-.666H11a.667.667 0 0 1 .667.666v2.666a.667.667 0 0 1-.667.667H8.334a.666.666 0 0 1-.666-.667z"/>
    <path fill="#F4D70D" d="M3.002 14.002a.666.666 0 0 1 .667-.667h2.666a.667.667 0 0 1 .666.667v2.666a.666.666 0 0 1-.666.666H3.669a.666.666 0 0 1-.667-.666zm13.997 0a.667.667 0 0 1 .666-.667h2.666a.667.667 0 0 1 .667.667v2.666a.666.666 0 0 1-.667.666h-2.666a.666.666 0 0 1-.666-.666zm-4.666 4.666A.667.667 0 0 1 13 18h2.666a.67.67 0 0 1 .666.666v2.667a.666.666 0 0 1-.666.666H13a.667.667 0 0 1-.667-.666zm-4.665 0A.667.667 0 0 1 8.334 18H11a.667.667 0 0 1 .667.666v2.667A.666.666 0 0 1 11 22H8.334a.666.666 0 0 1-.666-.666z"/>
    <path fill="#B805F7" d="M12.334 9.336A.667.667 0 0 1 13 8.67h2.666a.666.666 0 0 1 .666.666v2.666a.666.666 0 0 1-.666.667H13a.666.666 0 0 1-.666-.667z"/>
    <path fill="#F4D70D" d="M3.002 18.668A.666.666 0 0 1 3.67 18H7v3.333a.666.666 0 0 1-.666.666H3.669a.666.666 0 0 1-.667-.666z"/>
    <path fill="#B805F7" d="M16.152 3.804c.24.234.24.6 0 .82L14 6.67l-2.152-2.046a.56.56 0 0 1-.13-.628.6.6 0 0 1 .13-.185l1.72-1.64a.63.63 0 0 1 .866 0l1.72 1.64z"/>
    <path fill="#F4D70D" d="m11.667 3.344-.487.467a.56.56 0 0 0 0 .813l.487.467L10 6.67 7.848 4.623a.56.56 0 0 1 0-.813l1.72-1.64a.633.633 0 0 1 .866 0zm9.33 15.324a.666.666 0 0 0-.666-.667H17v3.333a.667.667 0 0 0 .666.666h2.666a.666.666 0 0 0 .667-.666z"/>
</svg>
